icons/mobile/24/svg/tab-number-24.svg

<svg width="24" height="24" viewBox="0 0 24 24" fill="none" xmlns="http://www.w3.org/2000/svg">
<path d="M2 16.4287V8.57129C2 7.01198 3.14602 5.67452 4.70801 5.47168H4.70898C6.87517 5.19139 9.32072 5.00098 12 5.00098C14.1308 5.00098 16.5754 5.12049 19.2627 5.4668C20.8205 5.66758 22 6.9946 22 8.57227V16.4297C22 17.989 20.854 19.3265 19.292 19.5293H19.291C17.1248 19.8096 14.6793 20 12 20C9.86922 20 7.42458 19.8805 4.7373 19.5342C3.17954 19.3334 2 18.0064 2 16.4287ZM3.75 16.4287C3.75 17.119 4.2687 17.7086 4.96094 17.7979C7.56556 18.1335 9.93485 18.25 12 18.25C14.5965 18.25 16.9667 18.0656 19.0664 17.7939C19.7402 17.7066 20.25 17.1262 20.25 16.4297V8.57227C20.25 7.88193 19.7313 7.29235 19.0391 7.20312C16.4344 6.86746 14.0652 6.75098 12 6.75098C9.40348 6.75098 7.03329 6.93535 4.93359 7.20703C4.25983 7.29442 3.75 7.87477 3.75 8.57129V16.4287Z" fill="black"/>
<path d="M8.64123 16.2994C7.0006 16.2994 5.81808 15.4223 5.82163 14.2433C5.81808 13.3342 6.51055 12.592 7.39833 12.4464V12.3967C6.62418 12.2404 6.08796 11.5799 6.09151 10.7845C6.08796 9.65876 7.16751 8.82779 8.64123 8.82779C10.1114 8.82779 11.1909 9.65876 11.1945 10.7845C11.1909 11.5835 10.6476 12.2404 9.88768 12.3967V12.4464C10.7613 12.592 11.4608 13.3342 11.4644 14.2433C11.4608 15.4223 10.2819 16.2994 8.64123 16.2994ZM8.64123 15.1701C9.36921 15.1701 9.86282 14.7404 9.86282 14.1225C9.86282 13.494 9.34435 13.0394 8.64123 13.0394C7.93455 13.0394 7.41964 13.494 7.41964 14.1225C7.41964 14.7369 7.90969 15.1701 8.64123 15.1701ZM8.64123 11.9208C9.25202 11.9208 9.69237 11.5196 9.69237 10.9443C9.69237 10.3796 9.25913 9.98546 8.64123 9.98546C8.01978 9.98546 7.59009 10.3761 7.59009 10.9443C7.59009 11.5196 8.02688 11.9208 8.64123 11.9208ZM15.3526 16.2994C13.7119 16.2994 12.5294 15.4223 12.533 14.2433C12.5294 13.3342 13.2219 12.592 14.1097 12.4464V12.3967C13.3355 12.2404 12.7993 11.5799 12.8028 10.7845C12.7993 9.65876 13.8788 8.82779 15.3526 8.82779C16.8227 8.82779 17.9023 9.65876 17.9058 10.7845C17.9023 11.5835 17.3589 12.2404 16.599 12.3967V12.4464C17.4726 12.592 18.1722 13.3342 18.1757 14.2433C18.1722 15.4223 16.9932 16.2994 15.3526 16.2994ZM15.3526 15.1701C16.0805 15.1701 16.5741 14.7404 16.5741 14.1225C16.5741 13.494 16.0557 13.0394 15.3526 13.0394C14.6459 13.0394 14.131 13.494 14.131 14.1225C14.131 14.7369 14.621 15.1701 15.3526 15.1701ZM15.3526 11.9208C15.9634 11.9208 16.4037 11.5196 16.4037 10.9443C16.4037 10.3796 15.9705 9.98546 15.3526 9.98546C14.7311 9.98546 14.3014 10.3761 14.3014 10.9443C14.3014 11.5196 14.7382 11.9208 15.3526 11.9208Z" fill="black"/>
</svg>

<!-- This Source Code Form is subject to the terms of the Mozilla Public
   - License, v. 2.0. If a copy of the MPL was not distributed with this
   - file, You can obtain one at http://mozilla.org/MPL/2.0/. -->
<svg xmlns="http://www.w3.org/2000/svg" width="24" height="24" fill="none" viewBox="0 0 24 24">
    <path fill="#000" d="M2 16.429V8.57a3.12 3.12 0 0 1 2.708-3.1h.001a56.8 56.8 0 0 1 14.554-.004A3.14 3.14 0 0 1 22 8.572v7.858a3.12 3.12 0 0 1-2.708 3.1h-.001a56.8 56.8 0 0 1-14.554.004A3.14 3.14 0 0 1 2 16.43m1.75 0c0 .69.519 1.28 1.21 1.369a55 55 0 0 0 14.106-.004 1.37 1.37 0 0 0 1.184-1.364V8.572c0-.69-.519-1.28-1.21-1.369a55 55 0 0 0-14.106.004A1.37 1.37 0 0 0 3.75 8.571z" />
    <path fill="#000" d="M8.641 16.3c-1.64 0-2.823-.878-2.82-2.057-.003-.909.69-1.651 1.577-1.797v-.05a1.615 1.615 0 0 1-1.306-1.612c-.004-1.125 1.076-1.956 2.55-1.956 1.47 0 2.549.83 2.553 1.957a1.63 1.63 0 0 1-1.307 1.612v.05c.873.145 1.573.887 1.576 1.796-.003 1.18-1.182 2.056-2.823 2.056m0-1.13c.728 0 1.222-.43 1.222-1.047 0-.629-.519-1.084-1.222-1.084-.706 0-1.221.455-1.221 1.084 0 .614.49 1.047 1.221 1.047m0-3.25c.611 0 1.051-.4 1.051-.976 0-.564-.433-.959-1.05-.959-.622 0-1.052.391-1.052.96 0 .575.437.976 1.051.976m6.712 4.38c-1.641 0-2.824-.878-2.82-2.057-.004-.909.689-1.651 1.577-1.797v-.05a1.615 1.615 0 0 1-1.307-1.612c-.004-1.125 1.076-1.956 2.55-1.956 1.47 0 2.55.83 2.553 1.957a1.63 1.63 0 0 1-1.307 1.612v.05c.874.145 1.573.887 1.577 1.796-.004 1.18-1.183 2.056-2.823 2.056m0-1.13c.728 0 1.221-.43 1.221-1.047 0-.629-.518-1.084-1.221-1.084-.707 0-1.222.455-1.222 1.084 0 .614.49 1.047 1.222 1.047m0-3.25c.61 0 1.05-.4 1.05-.976 0-.564-.432-.959-1.05-.959-.622 0-1.052.391-1.052.96 0 .575.437.976 1.052.976" />
</svg>
